X:195
T:Come on Wee Man
C:Martin Green
Z:robin.beech@mcgill.ca
S:LAU - Lightweights and Gentlemen
R:reel
M:4/4
L:1/8
K:Bmin
|: FB2A Bcde | ef2e- eded | ef2e- edef | gfed  cBAG |
FB2A Bcde | ef2e- edef | gfed cBAG |1 Fzz2z4 :|2 Fzz2 d'4 |:
gab/a/g c'bag | fB2A Bcdf | e_B2=B cdeg | f3f2efg- |
gab/a/g c'bag | fB2A Bcdf | edcB AGFE | F4z4 :|
